!!!COM: Haydn, Franz Joseph
!!!CDT: 1732/03/31-1809/05/31
!!!CNT: Austrian
!!!OTL: Sonata No. 51 in E-flat major
!!!SCT: Hob. XVI:38
!!!OMV: Mvmt. 3
!!!OMD: Finale: Allegro.
!!!ODT: ~1779
**kern	**kern	**dynam
*staff2	*staff1	*staff1/2
*>[A,A,B,B,C,C,D,D,E,E,F,F]	*>[A,A,B,B,C,C,D,D,E,E,F,F]	*>[A,A,B,B,C,C,D,D,E,E,F,F]
*>norep[A,B,C,D,E,F]	*>norep[A,B,C,D,E,F]	*>norep[A,B,C,D,E,F]
*>A	*>A	*>A
*clefF4	*clefG2	*clefG2
*k[b-e-a-]	*k[b-e-a-]	*k[b-e-a-]
*E-:	*E-:	*E-:
*M3/4	*M3/4	*M3/4
*MM132	*MM132	*MM132
4r	4B-`	f
=1	=1	=1
4r	(4e-SSs	.
4EE-` 4E-`	4g)	.
4AA-` 4A-`	4c`	.
=2	=2	=2
4FF` 4F`	(8a-L	.
.	8f)	.
4BB-` 4B-`	(8e-M	.
.	8dJ)	.
4AA- (4A-	(8ccL	.
.	8b-J)	.
=3	=3	=3
4GG\` 4G\`)	4b-	.
4AA-` 4A-`	(8a-LM	.
.	8gJ)	.
4AAn` 4An`	(8fLM	.
.	8e-J)	.
=4	=4	=4
.	(e-4qqP	.
4B-`	2dp)	.
4BB-`	.	.
4r	4B-`	.
=5	=5	=5
4r	(4e-SSs	.
4EE-` 4E-`	4g)	.
4AA-` 4A-`	4c`	.
=6	=6	=6
4FF` 4F`	(8a-L	.
.	8f)	.
4BB-` 4B-`	(8e-M	.
.	8dJ)	.
(4AA- 4A-	(8ddL	.
.	8b-J	.
!!LO:LB:g=z
=7	=7	=7
4GG\` 4G\`)	8ee-L	.
.	8b-	.
4AA-` 4A-`	8cc	.
.	8f	.
4BB-` 4B-`	8a-	.
.	8dJ	.
=8	=8	=8
4E-`	4e-)	.
4EE-`	4r	.
=:|!|:	=:|!|:	=:|!|:
*>B	*>B	*>B
(4e-	(8ggL	p
.	8ccJ)	.
=9	=9	=9
4d	(8ccL	.
.	8bn)	.
4G	(8ff	.
.	8dd)	.
4c	(8ee-	.
.	8ccJ)	.
=10	=10	=10
4F	(8b-XL	.
.	8an)	.
4An	(8ee-	.
.	8cc)	.
4B-)	(8dd	.
.	8b-J)	.
=11	=11	=11
(2E-	(8anL	.
.	8gJ)	.
.	(8ggL	.
.	8ee-	.
4En	8ddm	.
.	8ccJ)	.
=12	=12	=12
.	(4qqb-P	.
4F`)	2anp)	.
4FF`	.	.
4r	4ff`	f
!!LO:LB:g=z
=13	=13	=13
4r	(8bb-L	.
.	8ccc	.
(4B-	8ddd	.
.	8bb-	.
8e-L	8aan	.
8fJ	8ggJ	.
=14	=14	=14
8gL	8eee-L	.
8e-	8ccc	.
8d	8bb-	.
8cJ	8aan	.
4e-	8fff	.
.	8aaJ	.
=15	=15	=15
4d`)	8bb-L	.
.	8ff	.
4e-`	8gg	.
.	8cc	.
4f`	8ee-	.
.	8anJ	.
=16	=16	=16
.	(cc4qqP	.
4r	2.b-p))	.
!	!	!LO:DY:b=2
(8B-L	.	p
8G	.	.
8A-X	.	.
8FJ	.	.
=17	=17	=17
*^	*	*
4re	2En)	(8.b-LT	p
.	.	32anLL	.
.	.	32b-JJJ	.
(4d-	.	8ggL	.
.	.	8b-J)	.
4c)	4F	(8b-L	.
.	.	8aJ)	.
!!LO:LB:g=z
=18	=18	=18	=18
4rc	2D	(8.a-XTL	.
.	.	32gLL	.
.	.	32a-JJJ	.
(4c-	.	8ffL	.
.	.	8a-)	.
4B-)	4E-	(8a-	.
.	.	8gJ)	.
=19	=19	=19	=19
2.cn	(2A-	(8gL	.
.	.	8f	.
.	.	8cc	.
.	.	8a-	.
.	4An	8f	.
.	.	8e-J	.
*v	*v	*	*
=20	=20	=20
.	(4e-qqP	.
4B-`)	2dp))	.
4BB-`	.	.
4r	4B-`	mf
=21	=21	=21
4r	([4e-	.
(4E-	8e-]	.
.	4g	.
4A-	.	.
.	[8c	.
=22	=22	=22
4F	8c]	.
.	4a-	.
4B-	.	.
.	4d	.
4A-	.	.
.	[8cc	.
!!LO:LB:g=z
=23	=23	=23
4G	8ccL]	.
.	8b-	.
4A-	8a-	.
.	8g	.
4An	8f	.
.	8e-J	.
=24	=24	=24
.	(e-4qqP	.
4B-`)	2dp))	.
4BB-`	.	.
!	!	!LO:DY:rj
4r	8B-`L	f
.	(8B-J	.
=25	=25	=25
4r	8e-`L)	.
.	(8e-J	.
!	!	!LO:DY:b=2:rj
8E-`L	8g`L)	f
(8E-J	(8gJ	.
8A-`L)	8c`L)	.
(8A-J	(8cJ	.
=26	=26	=26
8F`L)	8a-`L)	.
(8FJ	(8a-J	.
8B-`L)	8d`L)	.
(8B-J	(<8dJ	.
4A-	8dd`L)	.
.	(8b-J	.
=27	=27	=27
4G	8ee-L	.
.	8b-	.
4A-	8cc	.
.	8f	.
4B-	8a-	.
.	8dJ	.
=28	=28	=28
4E-`)	4e-)	.
4EE-`	4r	.
!!LO:LB:g=z
=:|!|:	=:|!|:	=:|!|:
*>C	*>C	*>C
4r	(4e-	p
=29	=29	=29
!	!LO:TX:c:i:t=dolce	!
4r	2cc	.
(<4A- 4e-	.	.
.	(ee-16qqP	.
4B- 4e-	8dd-pL)	.
.	16ccL	.
.	16dd-JJ	.
=30	=30	=30
2G 2e-	4b-')	.
.	4b-'	.
.	(dd-16qqP	.
4A- 4e-)	(8ccpL)	.
.	16b-L	.
.	16ccJJ	.
*clefG2	*	*
=31	=31	=31
(2d- 2f	4a-	.
.	4ff	.
4c 4a-)	4ee-	.
=32	=32	=32
(4B- 4g	4dd-T	.
.	16qqccLL	.
.	16qqdd-JJ	.
4A- 4a-)	4cc)	.
4r	(4e-	.
*clefF4	*	*
=33	=33	=33
4r	2cc	.
(<4A- 4e-	.	.
.	(ee-16qqP	.
4B- 4e-	8dd-pL)	.
.	16ccL	.
.	16dd-JJ	.
=34	=34	=34
2G 2e-	4b-')	.
.	4b-'	.
.	(dd-16qqP	.
4A- 4e-)	(8ccpL)	.
.	16b-L	.
.	16ccJJ	.
!!LO:LB:g=z
=35	=35	=35
2F 2f	4a-')	.
.	4aa-'	.
4B-` 4f`	4a-` 4ddn`	.
=36	=36	=36
4E-` 4e-`	4g` 4ee-`	.
4r	4r	.
=:|!|:	=:|!|:	=:|!|:
*>D	*>D	*>D
.	(ff16qqP	.
4r	(8ee-pL)	mf
.	16ddL	.
.	16ee-JJ	.
*clefG2	*	*
=37	=37	=37
*^	*	*
(2dd-	2.e-	4gg	.
.	.	4ee-`)	.
.	.	(bb-16qqP	.
4cc)	.	(8aa-pL)	.
.	.	16ggL	.
.	.	16aa-JJ	.
=38	=38	=38	=38
(2g	[2.e-	4bb-	.
.	.	4ee-`)	.
.	.	(ddd-16qqP	.
4a-	.	(8cccpL)	.
.	.	16bb-L	.
.	.	16cccJJ	.
=39	=39	=39	=39
4b-	2.e-]	4ddd-`)	.
4g	.	(8.bb-L	.
.	.	16ddd-k	.
4a-	.	8.ccc	.
.	.	16aa-Jk	.
=40	=40	=40	=40
4g`)	4e-	4eee-`)	.
4r	4r	4r	.
4r	4r	(>4e-	.
*v	*v	*	*
*clefF4	*	*
!!LO:LB:g=z
=41	=41	=41
4r	2cc	p
(<4A- 4e-	.	.
.	(ee-16qqP	.
4B- 4e-	8dd-pL)	.
.	16ccL	.
.	16dd-JJ	.
=42	=42	=42
2G 2e-	4b-')	.
.	4b-'	.
.	(dd-16qqP	.
4A- 4e-	(8ccpL)	.
.	16b-L	.
.	16ccJJ	.
=43	=43	=43
*	*^	*
(<2d-)	4r	4a-	.
.	4ff)	4rc	.
.	.	(>b-\16qqP	.
4c	4ee-	(8a-pL)	.
.	.	16gL	.
.	.	16a-JJ	.
=44	=44	=44	=44
2.B-	4ee-	4f	.
.	4ddn	4b-	.
.	(gg16qqP	.	.
.	(8ffpL)	4a-)	.
.	16ee-L	.	.
.	16ffJJ	.	.
=45	=45	=45	=45
2e-)	4b-	(4a-	.
.	4ee-	4g)	.
(16qqPF	.	.	.
(8E-pL)	4dd-)	4g	mf
16DnL	.	.	.
16E-JJ	.	.	.
*	*v	*v	*
=46	=46	=46
.	(<dd-/4qqP	.
4AA-	2a- 2ccp)	.
4A-)	.	.
.	(dd-16qqP	.
(<4G- [4A-	(8ccpL)	.
.	16b-L	.
.	16ccJJ	.
!!LO:LB:g=z
=47	=47	=47
*^	*	*
2.A-]	4F')	4dd-')	.
.	4E-'	4ee-'	.
.	.	(gg16qqP	.
.	4D-'	(8ffpL)	.
.	.	16ee-L	.
.	.	16ffJJ	.
=48	=48	=48	=48
[2.A-	(2C	4ee-')	.
.	.	4aa-	.
.	.	(gg16qqP	.
.	4D-	(8ffpL)	p
.	.	16ee-L	.
.	.	16ffJJ	.
=49	=49	=49	=49
4A-]	2.E-)	4ee-')	.
(4c	.	(4a-	.
4B-	.	4gt	.
.	.	16qqfLL	.
.	.	16qqgJJ	.
*v	*v	*	*
=50	=50	=50
4A-`)	4a-`)	.
4AA-`	4r	.
=:|!|:	=:|!|:	=:|!|:
*>E	*>E	*>E
4r	4B-`	f
=51	=51	=51
4r	(4e-SSs	.
4EE-` 4E-`	4g)	.
4AA-` 4A-`	4c`	.
=52	=52	=52
4FF` 4F`	(8a-L	.
.	8f)	.
4BB-` 4B-`	(8e-M	.
.	8dJ)	.
4AA- (4A-	(8ccL	.
.	8b-J)	.
!!LO:LB:g=z
=53	=53	=53
4GG\` 4G\`)	4b-	.
4AA-` 4A-`	(8a-LM	.
.	8gJ)	.
4AAn` 4An`	(8fLM	.
.	8e-J)	.
=54	=54	=54
.	(e-4qqP	.
4B-`	2dp)	.
4BB-`	.	.
4r	4B-`	.
=55	=55	=55
4r	(4sSSse-	.
4EE-` 4E-`	4g)	.
4AA-` 4A-`	4c`	.
=56	=56	=56
4FF` 4F`	(8a-L	.
.	8f)	.
4BB-` 4B-`	(8e-M	.
.	8dJ)	.
(4AA- 4A-	(8ddL	.
.	8b-J	.
=57	=57	=57
4GG\` 4G\`)	8ee-L	.
.	8b-	.
4AA-` 4A-`	8cc	.
.	8f	.
4BB-` 4B-`	8a-	.
.	8dJ	.
=58	=58	=58
4E-`	4e-)	.
4EE-`	4r	.
!!LO:LB:g=z
=:|!|:	=:|!|:	=:|!|:
*>F	*>F	*>F
(4e-	(8ggL	p
.	8ccJ)	.
=59	=59	=59
4d	(8ccL	.
.	8bn)	.
4G	(8ff	.
.	8dd)	.
4c	(8ee-	.
.	8ccJ)	.
=60	=60	=60
4F	(8b-XL	.
.	8an)	.
4An	(8ee-	.
.	8cc)	.
4B-)	(8dd	.
.	8b-J)	.
=61	=61	=61
(2E-	(8anL	.
.	8gJ)	.
.	(8ggL	.
.	8ee-	.
4En	8ddm	.
.	8ccJ)	.
=62	=62	=62
.	(b-4qqP	.
4F`)	2anp)	.
4FF`	.	.
4r	4ff`	f
!!LO:LB:g=z
=63	=63	=63
4r	(8bb-L	.
.	8ccc	.
(4B-	8ddd	.
.	8bb-	.
8e-L	8aan	.
8fJ	8ggJ	.
=64	=64	=64
8gL	8eee-L	.
8e-	8ccc	.
8d	8bb-	.
8cJ	8aan	.
4e-	8fff	.
.	8aaJ	.
=65	=65	=65
4d`)	8bb-L	.
.	8ff	.
4e-`	8gg	.
.	8cc	.
4f`	8ee-	.
.	8anJ	.
=66	=66	=66
.	(cc4qqP	.
4r	2.b-p))	.
!	!	!LO:DY:b=2:rj
(8B-L	.	p
8G	.	.
8A-X	.	.
8FJ	.	.
=67	=67	=67
*^	*	*
4re	2En)	(8.b-TL	p
.	.	32anLL	.
.	.	32b-JJJ	.
(4d-	.	8ggL	.
.	.	8b-J)	.
4c)	4F	(8b-L	.
.	.	8aJ)	.
!!LO:LB:g=z
=68	=68	=68	=68
4rc	2D	(8.a-XTL	.
.	.	32gLL	.
.	.	32a-JJJ	.
(4c-	.	8ffL	.
.	.	8a-)	.
4B-X)	4E-	(8a-	.
.	.	8gJ)	.
=69	=69	=69	=69
2.cn	(2A-	(8gL	.
.	.	8f	.
.	.	8cc	.
.	.	8a-	.
.	4An	8f	.
.	.	8e-J)	.
*v	*v	*	*
=70	=70	=70
.	(e-4qqP	.
4B-`)	2dp)	.
4BB-`	.	.
4r	4B-`	.
=71	=71	=71
4r	([4e-	mf
(4E-	8e-]	.
.	4g	.
4A-	.	.
.	[8c	.
=72	=72	=72
4F	8c]	.
.	4a-	.
4B-	.	.
.	4d	.
4A-	.	.
.	[8cc	.
!!LO:LB:g=z
=73	=73	=73
4G	8ccL]	.
.	8b-	.
4A-	8a-	.
.	8g	.
4An	8f	.
.	8e-J	.
=74	=74	=74
.	(e-4qqP	.
4B-`)	2dp))	.
4BB-`	.	.
!	!	!LO:DY:rj
4r	8B-`L	f
.	(8B-J	.
=75	=75	=75
4r	8e-`L)	.
.	(8e-J	.
!	!	!LO:DY:b=2:rj
8E-`L	8g`L)	f
(8E-J	(8gJ	.
8A-`L)	8c`L)	.
(8A-J	(8cJ	.
=76	=76	=76
8F`L)	8a-`L)	.
(8FJ	(8a-J	.
8B-`L)	8d`L)	.
8B-J	(<8dJ	.
(4A-	8dd`L)	.
.	(8b-J	.
=77	=77	=77
4G	8ee-L	.
.	8b-	.
4A-	8cc	.
.	8f	.
4B-	8a-	.
.	8dJ	.
=78	=78	=78
4E-`	4e-)	.
4EE-`)	4r	.
==:|!	==:|!	==:|!
*-	*-	*-
!!!RDF**kern: > = above
!!!RDF**kern: < = below
!!!PPR: Universal Edition 1
!!!PTL: Haydn Piano Sonatas, Vol. 4, No. 32
!!!YOY: 1901
!!!ONB: Stich und Druck von Jos. Eberle & Co. Wien VII. Seidengasse 3-9
!!!ONM-ue: IV:32.3
!!!YEC: 2021 Craig Stuart Sapp
!!!YEM: Licence: (CC BY-NC-SA 4.0) https://creativecommons.org/licenses/by-nc-sa/4.0
!!!YER: 2021
!!!ENC: Craig Stuart Sapp
!!!END: 2009/08/26/
!!!EED: Craig Stuart Sapp
!!!EEV: 2021/02/02
!!!YEC: 2021 Craig Stuart Sapp
!!!URL: https://github.com/craigsapp/haydn-keyboard-sonatas
!!!URL-vhv: https://verovio.humdrum.org?file=haydn/sonatas/sonata51-3.krn
!!!URL-pdf: https://github.com/craigsapp/haydn-keyboard-sonatas/raw/master/reference-edition/sonata51-3.pdf
!!!title: @{OTL}, mvmt. @{OMV} (@{SCT}), UE @ONM-ue
